X:36
T:The Ginko Tree
R:jig
C:Paul S. Cranford
O:Cape Breton Island
S:http://www.cranfordpub.com
D:currently unrecorded
B:Josephine Keegan's 2nd Collection
Z:psc, (re-formatted,updated 9/17/04)
N:
H:                                                        copyrights Cranford Publications, SOCAN
L:1/8
M:6/8
Q:300
K:C
G,CE GEG|Add {e}dcA|cdc AGA|ded {e}dcA|
GAG GEG|Add {e}dcA|cdc AGA|[1c2 E DCA,:|[2c3 c2:|
|:e|gag edc|eaa {b}age|dAA AGE|1EDD D2 e|
gag edc|eaa {b}age|dAA AGA|c3 c2:|
[2EDD DCA,|G,CC EGc|Adc dea|ged cAG|c2 E DCA,|]
